X:34
T:Mottingham
T:8.8.6
S:John Moore's Book 3
Z:Transcribed by Edmund Spriggs 05/2021
%%VWML: Moore1-4495-p22-0
F:https://www.vwml.org/record/Moore3/4495/p22
N:Tune continues on jpeg page 23.
N:The jpeg index has the title as Nottingham.
N:The first note of the first part should be g, not a.
N:Bar 11 has A# in the fourth (bass) part. A natural would sound better.
N:Bars 17 and 18 in the first part have dotted minims. These should be semibreves.
N:The second page of the manuscript has some marks above the second and fourth parts which are similar
N:to repeat marks but are unlikely to be these, due to the context in which they appear.
M:C|
L:1/4
V:1 clef=treble
V:2 clef=treble
V:3 clef=treble
V:4 clef=bass
K:G
[V:1]A2Bd|d3d|e2c2|B3G|
[V:2]d2df|(gfg)g|(eg)f2|g3d|
[V:3]"Air"G2GG|(BAG)d|(cB)A2|G3B|
[V:4]G,2G,D,|(G,,A,,B,,)B,,|C,2D,2|G,,3G,|
[V:1]F2d2|d2d2|d2d2|d4|
[V:2]d2f2|g2d2|(gf)(ga)|g4|
[V:3]A2A2|B2B2|(dc)(BA)|B4|
[V:4]D,2D,2|G,2G,2|B,A,G,F,|G,4|
[V:1]z2B2|^c2(dA)|A2A2|A4|]
[V:2]z2g2|g2f2|e2e2|f4|]
[V:3]z2d2|e2d2|d2^c2|d4|]
[V:4]z2B,2|A,2D,2|A,2^A,,2|D,4|]
[V:1]B2BB|ddcc|AAGG|BBAd|
[V:2]g2gg|gggg|ffdd|ed/g/ e/f/g|
[V:3]d2dd|BBee|ddBB|GdcB|
[V:4]B,2B,B,|G,G,E,C,|D,D,G,G,|E,G,A,G,|
[V:1]d3-|d3|-d3B|cdAd|
[V:2]f3f|dde{f}g|f3g|ggfg|
[V:3]A3d|BG G/A/ B/c/|d3d|"Pia"edcB|
[V:4]D,3D,|G,B,A,G,|D,3G,|CB,A,G,|
[V:1]d3d|(d4|d/e/d/c/)Be|d2c2|B4|]
[V:2]f3f|((g3d)|g3)g|d2d2|d4|]
[V:3]A3A|(dcBA|B/A/B/c/ d) (3e/d/c/|B2A2|G4|]
[V:4]D,3C|B,A,G,F,|G,3C,|D,2D,2|G,,4|]

